src/cmd/32/tabdialog.svg

<svg viewBox="0 0 32 32" xmlns="http://www.w3.org/2000/svg"><path d="m4 4v1h24v-1zm6.5 5-.998047 1-4 4 .7050781.707031 3.7929689-3.792969v11.085938h1v-11.085938l3.792969 3.792969.707031-.707031-4-4-.998047-1zm10.5 1v11.085938l-3.791016-3.792969-.707031.707031 4 4 1 1 .998047-1 4-4-.705078-.707031-3.794922 3.792969v-11.085938zm-17 17v1h13v-1z" fill="#232629"/><path d="m19 26c-.5523 0-1 .44772-1 1s.4477 1 1 1 1-.44772 1-1-.4477-1-1-1zm4 0c-.5523 0-1 .44772-1 1s.4477 1 1 1 1-.44772 1-1-.4477-1-1-1zm4 0c-.5523 0-1 .44772-1 1s.4477 1 1 1 1-.44772 1-1-.4477-1-1-1z" fill="#e95420"/></svg>

<?xml version="1.0" encoding="UTF-8" standalone="no"?>
<svg
   xmlns:dc="http://purl.org/dc/elements/1.1/"
   xmlns:cc="http://creativecommons.org/ns#"
   xmlns:rdf="http://www.w3.org/1999/02/22-rdf-syntax-ns#"
   xmlns:svg="http://www.w3.org/2000/svg"
   xmlns="http://www.w3.org/2000/svg"
   xmlns:sodipodi="http://sodipodi.sourceforge.net/DTD/sodipodi-0.dtd"
   xmlns:inkscape="http://www.inkscape.org/namespaces/inkscape"
   viewBox="0 0 32 32"
   version="1.1"
   id="svg6"
   sodipodi:docname="tabdialog.svg"
   inkscape:version="0.92.4 (5da689c313, 2019-01-14)">
  <metadata
     id="metadata12">
    <rdf:RDF>
      <cc:Work
         rdf:about="">
        <dc:format>image/svg+xml</dc:format>
        <dc:type
           rdf:resource="http://purl.org/dc/dcmitype/StillImage" />
      </cc:Work>
    </rdf:RDF>
  </metadata>
  <defs
     id="defs10" />
  <sodipodi:namedview
     pagecolor="#ffffff"
     bordercolor="#666666"
     borderopacity="1"
     objecttolerance="10"
     gridtolerance="10"
     guidetolerance="10"
     inkscape:pageopacity="0"
     inkscape:pageshadow="2"
     inkscape:window-width="1920"
     inkscape:window-height="1011"
     id="namedview8"
     showgrid="true"
     inkscape:zoom="14.75"
     inkscape:cx="16.677423"
     inkscape:cy="10.021924"
     inkscape:window-x="0"
     inkscape:window-y="32"
     inkscape:window-maximized="1"
     inkscape:current-layer="svg6">
    <inkscape:grid
       type="xygrid"
       id="grid822" />
  </sodipodi:namedview>
  <path
     d="M 4,4 V 5 H 28 V 4 Z m 6.5,5 -0.998047,1 -4,4 0.7050781,0.707031 L 10,10.914062 V 22 h 1 V 10.914062 L 14.792969,14.707031 15.5,14 11.5,10 10.501953,9 Z M 21,10 V 21.085938 L 17.208984,17.292969 16.501953,18 l 4,4 1,1 L 22.5,22 26.5,18 25.794922,17.292969 22,21.085938 V 10 Z M 4,27 v 1 h 24 v -1 z"
     id="path2"
     inkscape:connector-curvature="0"
     style="fill:#232629"
     sodipodi:nodetypes="ccccccccccccccccccccccccccccccccccc" />
</svg>
